images/svg/dribbble.svg

<?xml version="1.0" encoding="UTF-8" standalone="no"?>
<svg width="21px" height="21px" viewBox="0 0 21 21" version="1.1" xmlns="http://www.w3.org/2000/svg" xmlns:xlink="http://www.w3.org/1999/xlink">
    <!-- Generator: Sketch 46.1 (44463) - http://www.bohemiancoding.com/sketch -->
    <title>dribbble</title>
    <desc>Created with Sketch.</desc>
    <defs></defs>
    <g id="Page-1" stroke="none" stroke-width="1" fill="none" fill-rule="evenodd">
        <g id="Home-Page" transform="translate(-332.000000, -380.000000)" fill="#484848">
            <g id="Group-16" transform="translate(250.000000, 150.000000)">
                <g id="dribbble" transform="translate(82.000000, 230.000000)">
                    <path d="M17.4424688,4.8418125 C17.2534687,5.09775 15.7506563,7.0245 12.434625,8.37834375 C12.6433125,8.80490625 12.8434688,9.24 13.0291875,9.6770625 C13.0954688,9.8319375 13.1597813,9.98615625 13.2227813,10.1397188 C16.20675,9.765 19.1723438,10.366125 19.4676563,10.4284688 C19.4479688,8.3120625 18.6913125,6.36825 17.4424688,4.8418125 M8.3986875,1.7941875 C8.64609375,2.12625 10.2755625,4.344375 11.7449063,7.0441875 C14.9342813,5.84915625 16.2841875,4.034625 16.445625,3.8049375 C14.8614375,2.39925 12.7791563,1.5448125 10.5,1.5448125 C9.7768125,1.5448125 9.07265625,1.6314375 8.3986875,1.7941875 M1.72134375,8.67628125 C2.1223125,8.68153125 5.817,8.6979375 10.0124063,7.583625 C8.52665625,4.94221875 6.9234375,2.7208125 6.6871875,2.396625 C4.17834375,3.5805 2.30278125,5.893125 1.72134375,8.67628125 M3.83709375,16.5099375 C4.04053125,16.162125 6.50146875,12.0868125 11.127375,10.591875 C11.2441875,10.5538125 11.3623125,10.518375 11.4804375,10.4849063 C11.2553438,9.97565625 11.0105625,9.46575 10.7533125,8.9630625 C6.27440625,10.303125 1.92871875,10.2473438 1.53628125,10.2394688 C1.53365625,10.3306875 1.5316875,10.4219063 1.5316875,10.513125 C1.5316875,12.8165625 2.4045,14.9198438 3.83709375,16.5099375 M14.0037187,18.7694062 C13.8698438,17.9825625 13.3494375,15.2400938 12.0900937,11.9680313 C12.0704062,11.9745938 12.0507187,11.9811563 12.0310312,11.9877188 C6.97265625,13.7504063 5.1568125,17.2587188 4.995375,17.5888125 C6.51590625,18.7746563 8.42690625,19.4820938 10.5,19.4820938 C11.7422812,19.4820938 12.9268125,19.228125 14.0037187,18.7694062 M19.3554375,11.9371875 C19.0483125,11.8400625 16.5795,11.10375 13.7687812,11.5532813 C14.9421562,14.7767813 15.41925,17.4024375 15.511125,17.9477813 C17.5231875,16.587375 18.9557813,14.43225 19.3554375,11.9371875 M10.5,21 C4.7105625,21 0,16.2894375 0,10.5 C0,4.70990625 4.7105625,0 10.5,0 C16.2900938,0 21,4.70990625 21,10.5 C21,16.2894375 16.2900938,21 10.5,21" id="Fill-9"></path>
                </g>
            </g>
        </g>
    </g>
</svg>

<svg width="21" height="21" viewBox="0 0 21 21" xmlns="http://www.w3.org/2000/svg"><title>dribbble</title><desc>Created with Sketch.</desc><path d="M17.442 4.842c-.19.256-1.69 2.183-5.007 3.536.208.427.408.862.594 1.3.065.154.13.308.193.462 2.984-.375 5.95.226 6.245.288-.02-2.116-.777-4.06-2.026-5.586M8.4 1.794c.246.332 1.876 2.55 3.345 5.25 3.19-1.195 4.54-3.01 4.7-3.24-1.584-1.405-3.666-2.26-5.945-2.26-.723 0-1.427.087-2.1.25M1.72 8.676c.402.006 4.097.022 8.292-1.092-1.485-2.642-3.09-4.863-3.325-5.187-2.51 1.183-4.384 3.496-4.966 6.28m2.117 7.833c.204-.348 2.664-4.423 7.29-5.918.117-.038.235-.074.353-.107-.225-.51-.47-1.02-.727-1.522-4.48 1.34-8.824 1.284-9.217 1.276-.002.09-.004.182-.004.273 0 2.304.873 4.407 2.305 5.997m10.167 2.26c-.134-.787-.655-3.53-1.914-6.802l-.06.02c-5.057 1.762-6.873 5.27-7.035 5.6 1.52 1.187 3.432 1.894 5.505 1.894 1.242 0 2.427-.254 3.504-.713m5.35-6.833c-.306-.097-2.774-.833-5.585-.384 1.172 3.224 1.65 5.85 1.74 6.395 2.013-1.36 3.446-3.516 3.845-6.01M10.5 21C4.71 21 0 16.29 0 10.5S4.71 0 10.5 0 21 4.71 21 10.5 16.29 21 10.5 21" fill="#484848"/></svg>
